packages/crayons-icon/icons/ticket-primary.svg

<?xml version="1.0" encoding="UTF-8"?>
<svg width="16px" height="16px" viewBox="0 0 16 16" version="1.1" xmlns="http://www.w3.org/2000/svg" xmlns:xlink="http://www.w3.org/1999/xlink">
    <!-- Generator: Sketch 52.6 (67491) - http://www.bohemiancoding.com/sketch -->
    <title>icon/ticket-primary</title>
    <desc>Created with Sketch.</desc>
    <g id="Icons-✅" stroke="none" stroke-width="1" fill="none" fill-rule="evenodd">
        <g id="Icons" transform="translate(-490.000000, -936.000000)" fill="currentColor">
            <g id="icon/ticket-primary" transform="translate(490.000000, 936.000000)">
                <g id="ticket-primary">
                    <path d="M16,8 C15.9744209,8.23827378 15.831968,8.44820438 15.62,8.56 L14.12,9.67 L14.86,11.37 C14.95984,11.5681333 14.95984,11.8018667 14.86,12 C14.7460032,12.1914351 14.5508218,12.3203284 14.33,12.35 L12.48,12.55 L12.28,14.4 C12.2503284,14.6208218 12.1214351,14.8160032 11.93,14.93 C11.7318667,15.02984 11.4981333,15.02984 11.3,14.93 L9.6,14.19 L8.49,15.68 C8.36033636,15.8601273 8.15194257,15.9668871 7.93,15.9668871 C7.70805743,15.9668871 7.49966364,15.8601273 7.37,15.68 L6.26,14.19 L4.56,14.93 C4.3618667,15.02984 4.1281333,15.02984 3.93,14.93 C3.73856492,14.8160032 3.60967157,14.6208218 3.58,14.4 L3.38,12.55 L1.53,12.35 C1.3091782,12.3203284 1.11399684,12.1914351 1,12 C0.900159985,11.8018667 0.900159985,11.5681333 1,11.37 L1.78,9.67 L0.28,8.56 C0.10373591,8.42780193 -2.22675108e-16,8.22033011 0,8 C2.22675108e-16,7.77966989 0.10373591,7.57219807 0.28,7.44 L1.81,6.33 L1.07,4.63 C0.970159985,4.4318667 0.970159985,4.1981333 1.07,4 C1.16725955,3.78167947 1.36523087,3.62479653 1.6,3.58 L3.45,3.38 L3.65,1.53 C3.67967157,1.3091782 3.80856492,1.11399684 4,1 C4.1981333,0.900159985 4.4318667,0.900159985 4.63,1 L6.33,1.78 L7.44,0.29 C7.57669429,0.120849447 7.78252072,0.02254834 8,0.02254834 C8.21747928,0.02254834 8.42330571,0.120849447 8.56,0.29 L9.67,1.81 L11.37,1.07 C11.5681333,0.970159985 11.8018667,0.970159985 12,1.07 C12.2183205,1.16725955 12.3752035,1.36523087 12.42,1.6 L12.62,3.45 L14.47,3.65 C14.6908218,3.67967157 14.8860032,3.80856492 15,4 C15.09984,4.1981333 15.09984,4.4318667 15,4.63 L14.22,6.33 L15.72,7.44 C15.8938573,7.57419268 15.9969602,7.78039859 16,8 Z M12.71,9.72 C12.5765398,9.41788673 12.6724075,9.0635931 12.94,8.87 L14.12,8 L12.94,7.13 C12.6724075,6.9364069 12.5765398,6.58211327 12.71,6.28 L13.3,4.94 L11.84,4.78 C11.5168135,4.73750809 11.2624919,4.48318651 11.22,4.16 L11.06,2.7 L9.72,3.29 C9.41734175,3.4157209 9.06796632,3.32118402 8.87,3.06 L8,1.88 L7.13,3.06 C6.9341646,3.32432584 6.58240235,3.41950856 6.28,3.29 L4.94,2.7 L4.78,4.16 C4.73750809,4.48318651 4.48318651,4.73750809 4.16,4.78 L2.7,4.94 L3.29,6.28 C3.42346024,6.58211327 3.32759255,6.9364069 3.06,7.13 L1.88,8 L3.06,8.87 C3.32759255,9.0635931 3.42346024,9.41788673 3.29,9.72 L2.7,11.06 L4.16,11.22 C4.48318651,11.2624919 4.73750809,11.5168135 4.78,11.84 L4.94,13.3 L6.28,12.71 C6.36853649,12.67196 6.46365033,12.6515785 6.56,12.65 C6.78563445,12.6491509 6.99784334,12.7571169 7.13,12.94 L8,14.12 L8.87,12.94 C9.06796632,12.678816 9.41734175,12.5842791 9.72,12.71 L11.06,13.3 L11.22,11.84 C11.2624919,11.5168135 11.5168135,11.2624919 11.84,11.22 L13.3,11.06 L12.71,9.72 Z M9.8,6 C10.0729414,5.74470877 10.4970586,5.74470877 10.77,6 C10.9069644,6.13025306 10.9845003,6.31098915 10.9845003,6.5 C10.9845003,6.68901085 10.9069644,6.86974694 10.77,7 L7.77,10 C7.63436674,10.1270967 7.45587006,10.1984953 7.27,10.2 C7.08699499,10.1989754 6.9114535,10.1273258 6.78,10 L5.2,8.44 C5.06303562,8.30974694 4.98549974,8.12901085 4.98549974,7.94 C4.98549974,7.75098915 5.06303562,7.57025306 5.2,7.44 C5.47679776,7.16544444 5.92320224,7.16544444 6.2,7.44 L7.27,8.52 L9.8,6 Z" id="Combined-Shape"></path>
                </g>
            </g>
        </g>
    </g>
</svg>

<svg viewBox="0 0 16 16"><path d="M16 8a.72.72 0 0 1-.38.56l-1.5 1.11.74 1.7a.7.7 0 0 1 0 .63.73.73 0 0 1-.53.35l-1.85.2-.2 1.85a.73.73 0 0 1-.35.53.7.7 0 0 1-.63 0l-1.7-.74-1.11 1.49a.69.69 0 0 1-1.12 0l-1.11-1.49-1.7.74a.7.7 0 0 1-.63 0 .73.73 0 0 1-.35-.53l-.2-1.85-1.85-.2A.73.73 0 0 1 1 12a.7.7 0 0 1 0-.63l.78-1.7-1.5-1.11a.7.7 0 0 1 0-1.12l1.53-1.11-.74-1.7a.7.7 0 0 1 0-.63.73.73 0 0 1 .53-.42l1.85-.2.2-1.85A.73.73 0 0 1 4 1a.7.7 0 0 1 .63 0l1.7.78L7.44.29a.72.72 0 0 1 1.12 0l1.11 1.52 1.7-.74a.7.7 0 0 1 .63 0 .73.73 0 0 1 .42.53l.2 1.85 1.85.2A.73.73 0 0 1 15 4a.7.7 0 0 1 0 .63l-.78 1.7 1.5 1.11A.72.72 0 0 1 16 8zm-3.29 1.72a.7.7 0 0 1 .23-.85L14.12 8l-1.18-.87a.7.7 0 0 1-.23-.85l.59-1.34-1.46-.16a.72.72 0 0 1-.62-.62l-.16-1.46-1.34.59a.72.72 0 0 1-.85-.23L8 1.88l-.87 1.18a.71.71 0 0 1-.85.23L4.94 2.7l-.16 1.46a.72.72 0 0 1-.62.62l-1.46.16.59 1.34a.7.7 0 0 1-.23.85L1.88 8l1.18.87a.7.7 0 0 1 .23.85l-.59 1.34 1.46.16a.72.72 0 0 1 .62.62l.16 1.46 1.34-.59a.7.7 0 0 1 .85.23L8 14.12l.87-1.18a.72.72 0 0 1 .85-.23l1.34.59.16-1.46a.72.72 0 0 1 .62-.62l1.46-.16-.59-1.34zM9.8 6a.71.71 0 0 1 .97 0 .69.69 0 0 1 0 1l-3 3a.71.71 0 0 1-.99 0L5.2 8.44a.69.69 0 0 1 0-1 .71.71 0 0 1 1 0l1.07 1.08L9.8 6z" fill="currentColor" fill-rule="evenodd"/></svg>
